X: 49121
T: the Countess of Dunmore's Reel
C: Murial A Johnstone
R: reel
B: RSCDS 49-12
Z: 2015 by John Chambers <jc:trillian.mit.edu>
N: Tune for the dance by the same name
M: 4/4
L: 1/8
K: D
AB/c/ |\
"D"d2d2 "G"BcdB | "A7"cdec "D"d2ef |\
"Em7"g3f "A7"edcB | "F#/D"A3G "Bm"FEDF |\
"Em"G2AB "F#/D"ADCD | "G"B,2GF "A7"EDCB, |\
"D"A,2D2 "A7"CDEC | "D"D4 D2 :|
E2 |\
"Bm"F2B2 Bdcd | "G"BdcB "F#/D"ADEF |\
"Em7"G2g2 "A7"gbag | "D"fgef "F#/D"d3c |\
"Bm"dDCD "A"cDCD | "G"BDCD "F#/D"ADEF |\
"Em7"G2B,2 "A7"CDEC | "D"D4 D3 ||
E |\
"Bm"F2B2 "A/Bm"Bdcd | "G"BdcB "F#/D"ADEF |\
"Em7"G2g2 "A7"gbag | "D"fgef "F#/D7"d2fa |\
"G"bdcd "F#/D"adcd | "Em7"gBgf "A7"edcB |\
"F#/D"A2d2 "A7"cdec | "D"d4 d2 |]
